X: 5
T: No_14_Corn-grinding_Song.krn
N: Derived from No_14_Corn-grinding_Song.krn
%%abc-version 2.0
%%abcx-abcm2ps-target-version 5.9.1 (29 Sep 2008)
%%abc-creator hum2abc beta
%%abcx-conversion-date 2019/03/15 08:25:35
%%humdrum-veritas 4142879853
%%humdrum-veritas-data 2859605750
%%linebreak <none>
%%barnumbers 0
L: 1/8
M: 2/4
K: B clef=bass
[K:clef=bass][M:2/4]B,B, B,B, | 
F,B,B,2 ]|:  
[M:3/4]GF BFF2 | 
FB, D/B,G,/ G,F, | 
[M:2/4]B,G, B,B, | 
G,G,G,2 | 
z G,G,2 :|]  
D/B,/D DB, | 
G,DD2 | 
B,D D/B,/B, | 
G,G,G,2 | 
D/B,/D DB, | 
G,DD2 | 
B,D D/B,/B, | 
G,G, G, z | 
[M:3/4]B,/G,/G, G,B, B,B, | 
G,G, G,B, B,B, | 
G,G, G,G, G, z | 
B,/G,/G, G,D B,B, | 
G,G, G,D B,B, | 
G,G,/ z/ G,D B,B, | 
G,G, G,D B,D | 
B,G, G,G, G, z | 
B,G, G,D B,D | 
G,2G,G, G,G, | 
G,2G,2z2 |]  



